icons/vscode-32.svg

<svg width="32" height="32" viewBox="0 0 32 32" fill="none" xmlns="http://www.w3.org/2000/svg">
<path d="M21.7268 27.839C21.3136 28.039 20.8466 28.0492 20.437 27.8888C20.2324 27.8088 20.042 27.686 19.8799 27.5228L9.63232 18.1254L5.16866 21.5312C4.75314 21.8482 4.17194 21.8222 3.78602 21.4694L2.35438 20.1604C1.88234 19.7287 1.8818 18.9822 2.35322 18.5499L6.22426 15L2.35322 11.4501C1.8818 11.0178 1.88234 10.2713 2.35438 9.83964L3.78602 8.5306C4.17194 8.17774 4.75314 8.15176 5.16866 8.4688L9.63232 11.8746L19.8799 2.4771C19.9407 2.41594 20.0056 2.36046 20.0736 2.31076C20.5496 1.96286 21.1844 1.8986 21.7268 2.16096L27.0798 4.75014C27.6424 5.0222 28 5.59442 28 6.22218V16H21.504V9.06712L13.7284 15L21.504 20.9328V16H28V23.7778C28 24.4056 27.6422 24.9778 27.0798 25.25L21.7268 27.839Z" fill="black"/>
</svg>

<svg xmlns="http://www.w3.org/2000/svg" width="32" height="32" viewBox="0 0 32 32"><path d="M21.727 27.839a1.612 1.612 0 0 1-1.847-.316L9.632 18.125l-4.463 3.406a1.078 1.078 0 0 1-1.383-.062L2.354 20.16a1.093 1.093 0 0 1-.001-1.61L6.224 15l-3.871-3.55a1.093 1.093 0 0 1 .001-1.61l1.432-1.309a1.078 1.078 0 0 1 1.383-.062l4.463 3.406L19.88 2.477a1.612 1.612 0 0 1 1.847-.316L27.08 4.75c.562.272.92.844.92 1.472V16h-6.496V9.067L13.728 15l7.776 5.933V16H28v7.778c0 .628-.358 1.2-.92 1.472l-5.353 2.589Z"/></svg>
